assets/img/telephone icon.svg

<svg height="600" preserveAspectRatio="xMidYMid meet" viewBox="0 0 450 449.999984" width="600" xmlns="http://www.w3.org/2000/svg" xmlns:xlink="http://www.w3.org/1999/xlink" zoomAndPan="magnify"><clipPath id="a"><path d="m0 10.40625h450v429h-450zm0 0"/></clipPath><g clip-path="url(#a)"><path d="m225 10.40625c-78.835938 0-129.492188 9.574219-162.183594 20.667969s-48.058594 24.5-53.089844 28.925781h-.039062v.042969c-6.304688 5.585937-7.304688 12.167969-8.382812 19.191406-1.039063 7.019531-1.2382818 14.800781-1.078126 22.582031.359376 15.519532 2.195313 30.5625 3.472657 37.464844 3.074219 16.199219 16.046875 26.253906 29.417969 24.058594h.042968c2.871094-.476563 6.746094-1.476563 12.773438-2.949219 6.066406-1.519531 13.53125-3.394531 21.074218-5.308594 15.089844-3.832031 30.855469-7.898437 34.410157-8.699219 11.175781-2.511718 17.28125-11.890624 20.597656-22.023437v.039063c.757813-2.351563 6.1875-15.558594 11.015625-26.890626 3.792969-8.859374 5.867188-13.726562 7.304688-16.917968 5.429687-1.515625 33.53125-8.898438 84.664062-8.898438 51.09375 0 79.234375 7.382813 84.664062 8.898438 1.398438 3.191406 3.511719 8.058594 7.304688 16.917968 4.828125 11.332032 10.21875 24.496094 11.015625 26.890626 3.316406 10.054687 9.34375 19.671874 20.757813 22.066406 2.953124.636718 18.839843 4.707031 33.851562 8.539062 7.542969 1.953125 15.007812 3.867188 21.113281 5.386719 6.109375 1.515625 10.101563 2.511719 13.292969 3.03125 13.214844 1.953125 26.1875-7.820313 29.300781-24.101563 1.277344-6.902343 3.113281-21.941406 3.472657-37.503906.160156-7.78125-.039063-15.5625-1.078126-22.582031-1.078124-6.984375-2.078124-13.648437-8.421874-19.191406h-.042969c-5.027344-4.46875-20.355469-17.875-53.046875-28.96875-32.734375-11.050781-83.386719-20.667969-162.183594-20.667969zm0 20.429688c77.160156 0 125.578125 9.414062 155.597656 19.628906 30.015625 10.175781 40.914063 20.269531 46.144532 24.898437-1.199219-1.078125.957031 1.835938 1.714843 6.902344.757813 5.105469 1.039063 12.050781.878907 19.113281-.320313 14.121094-2.234376 29.445313-3.15625 34.152344-1.316407 6.941406-7.023438 7.542969-6.105469 7.660156-.359375-.039062-5.507813-1.15625-11.457031-2.632812-5.988282-1.476563-13.410157-3.390625-20.914063-5.304688-15.011719-3.871094-29.460937-7.664062-34.730469-8.78125h-.039062c.199218.042969-3.632813-2.671875-5.507813-8.457031v-.039063c-1.875-5.507812-6.785156-17.039062-11.65625-28.488281-4.910156-11.453125-9.421875-21.867187-9.421875-21.867187l-1.914062-4.386719-4.550782-1.359375s-36.085937-10.613281-94.882812-10.613281-94.882812 10.613281-94.882812 10.613281l-4.550782 1.359375-1.914062 4.386719s-4.511719 10.414062-9.421875 21.828125c-4.871094 11.449219-9.78125 23.019531-11.65625 28.527343v.039063c-1.875 5.707031-5.707031 8.457031-5.667969 8.457031-4.949219 1.117188-19.878906 4.949219-34.925781 8.78125-7.546875 1.914063-14.96875 3.828125-20.917969 5.265625-5.90625 1.476563-10.976562 2.632813-11.257812 2.671875.71875-.117187-4.667969-.597656-5.984376-7.660156v-.039062c-.921874-4.707032-2.835937-20.03125-3.15625-34.15625-.160156-7.0625.082032-13.964844.839844-19.070313.796875-5.105469 2.953125-8.019531 1.753906-6.941406 5.230469-4.628907 16.128907-14.722657 46.144532-24.9375 29.980468-10.175781 78.4375-19.550781 155.597656-19.550781zm-71.53125 91.925781c-5.628906 0-10.21875 4.589843-10.21875 10.214843v26.335938c-4.550781 4.269531-38.519531 36.226562-84.382812 89.574219-31.175782 36.269531-38.320313 73.175781-38.242188 98.632812.039062 11.089844 2.675781 30.960938 5.230469 49.195313 2.554687 18.234375 5.109375 34.074218 5.109375 34.074218.796875 4.988282 5.066406 8.617188 10.097656 8.617188h51.09375c5.628906 0 10.21875-4.589844 10.21875-10.214844v-10.214844h245.25v10.214844c0 5.625 4.589844 10.214844 10.21875 10.214844h51.09375c4.988281 0 9.261719-3.628906 10.058594-8.578125 0 0 2.59375-15.878906 5.148437-34.074219 2.554688-18.195312 5.191407-38.105468 5.230469-49.277344.039062-25.414062-7.144531-62.402343-38.242188-98.589843-45.863281-53.347657-79.832031-85.304688-84.382812-89.574219v-26.335938c0-5.625-4.589844-10.214843-10.21875-10.214843h-40.875c-5.628906 0-10.21875 4.589843-10.21875 10.214843v20.429688h-40.875v-20.429688c0-5.625-4.589844-10.214843-10.21875-10.214843zm10.21875 20.429687h20.4375v20.429688c0 5.625 4.589844 10.214844 10.21875 10.214844h61.3125c5.628906 0 10.21875-4.589844 10.21875-10.214844v-20.429688h20.4375v20.429688c0 2.832031 1.199219 5.546875 3.273438 7.5 0 0 37.761718 34.914062 86.019531 91.089844 27.703125 32.199218 33.371093 63.5625 33.332031 85.265624 0 7.460938-2.515625 28.449219-5.03125 46.445313-1.875 13.367187-2.914062 19.75-3.75 25.054687h-32.09375v-10.214843c0-5.625-4.589844-10.210938-10.21875-10.210938h-265.6875c-5.628906 0-10.21875 4.585938-10.21875 10.210938v10.214843h-32.09375c-.796875-5.304687-1.875-11.730468-3.75-25.09375-2.515625-18.035156-4.992188-38.984374-5.03125-46.445312-.078125-21.664062 5.546875-52.90625 33.332031-85.226562 48.257813-56.175782 86.019531-91.089844 86.019531-91.089844 2.074219-1.953125 3.273438-4.667969 3.273438-7.5zm-20.4375 81.714844v20.429688h40.875v-20.429688zm61.3125 0v20.429688h40.875v-20.429688zm61.3125 0v20.429688h40.875v-20.429688zm-122.625 40.855469v20.429687h40.875v-20.429687zm61.3125 0v20.429687h40.875v-20.429687zm61.3125 0v20.429687h40.875v-20.429687zm-122.625 40.859375v20.429687h40.875v-20.429687zm61.3125 0v20.429687h40.875v-20.429687zm61.3125 0v20.429687h40.875v-20.429687zm0 0" fill="#e6a6cd"/></g></svg>

<svg xmlns="http://www.w3.org/2000/svg" xmlns:xlink="http://www.w3.org/1999/xlink" width="600" zoomAndPan="magnify" viewBox="0 0 450 449.999984" height="600" preserveAspectRatio="xMidYMid meet" version="1.0"><defs><clipPath id="id1"><path d="M 0 10.40625 L 450 10.40625 L 450 439.40625 L 0 439.40625 Z M 0 10.40625 " clip-rule="nonzero"/></clipPath></defs><g clip-path="url(#id1)"><path fill="#e6a6cd" d="M 225 10.40625 C 146.164062 10.40625 95.507812 19.980469 62.816406 31.074219 C 30.125 42.167969 14.757812 55.574219 9.726562 60 L 9.6875 60 L 9.6875 60.042969 C 3.382812 65.628906 2.382812 72.210938 1.304688 79.234375 C 0.265625 86.253906 0.0664062 94.035156 0.226562 101.816406 C 0.585938 117.335938 2.421875 132.378906 3.699219 139.28125 C 6.773438 155.480469 19.746094 165.535156 33.117188 163.339844 L 33.160156 163.339844 C 36.03125 162.863281 39.90625 161.863281 45.933594 160.390625 C 52 158.871094 59.464844 156.996094 67.007812 155.082031 C 82.097656 151.25 97.863281 147.183594 101.417969 146.382812 C 112.59375 143.871094 118.699219 134.492188 122.015625 124.359375 L 122.015625 124.398438 C 122.773438 122.046875 128.203125 108.839844 133.03125 97.507812 C 136.824219 88.648438 138.898438 83.78125 140.335938 80.589844 C 145.765625 79.074219 173.867188 71.691406 225 71.691406 C 276.09375 71.691406 304.234375 79.074219 309.664062 80.589844 C 311.0625 83.78125 313.175781 88.648438 316.96875 97.507812 C 321.796875 108.839844 327.1875 122.003906 327.984375 124.398438 C 331.300781 134.453125 337.328125 144.070312 348.742188 146.464844 C 351.695312 147.101562 367.582031 151.171875 382.59375 155.003906 C 390.136719 156.957031 397.601562 158.871094 403.707031 160.390625 C 409.816406 161.90625 413.808594 162.902344 417 163.421875 C 430.214844 165.375 443.1875 155.601562 446.300781 139.320312 C 447.578125 132.417969 449.414062 117.378906 449.773438 101.816406 C 449.933594 94.035156 449.734375 86.253906 448.695312 79.234375 C 447.617188 72.25 446.617188 65.585938 440.273438 60.042969 L 440.230469 60.042969 C 435.203125 55.574219 419.875 42.167969 387.183594 31.074219 C 354.449219 20.023438 303.796875 10.40625 225 10.40625 Z M 225 30.835938 C 302.160156 30.835938 350.578125 40.25 380.597656 50.464844 C 410.613281 60.640625 421.511719 70.734375 426.742188 75.363281 C 425.542969 74.285156 427.699219 77.199219 428.457031 82.265625 C 429.214844 87.371094 429.496094 94.316406 429.335938 101.378906 C 429.015625 115.5 427.101562 130.824219 426.179688 135.53125 C 424.863281 142.472656 419.15625 143.074219 420.074219 143.191406 C 419.714844 143.152344 414.566406 142.035156 408.617188 140.558594 C 402.628906 139.082031 395.207031 137.167969 387.703125 135.253906 C 372.691406 131.382812 358.242188 127.589844 352.972656 126.472656 L 352.933594 126.472656 C 353.132812 126.515625 349.300781 123.800781 347.425781 118.015625 L 347.425781 117.976562 C 345.550781 112.46875 340.640625 100.9375 335.769531 89.488281 C 330.859375 78.035156 326.347656 67.621094 326.347656 67.621094 L 324.433594 63.234375 L 319.882812 61.875 C 319.882812 61.875 283.796875 51.261719 225 51.261719 C 166.203125 51.261719 130.117188 61.875 130.117188 61.875 L 125.566406 63.234375 L 123.652344 67.621094 C 123.652344 67.621094 119.140625 78.035156 114.230469 89.449219 C 109.359375 100.898438 104.449219 112.46875 102.574219 117.976562 L 102.574219 118.015625 C 100.699219 123.722656 96.867188 126.472656 96.90625 126.472656 C 91.957031 127.589844 77.027344 131.421875 61.980469 135.253906 C 54.433594 137.167969 47.011719 139.082031 41.0625 140.519531 C 35.15625 141.996094 30.085938 143.152344 29.804688 143.191406 C 30.523438 143.074219 25.136719 142.59375 23.820312 135.53125 L 23.820312 135.492188 C 22.898438 130.785156 20.984375 115.460938 20.664062 101.335938 C 20.503906 94.273438 20.746094 87.371094 21.503906 82.265625 C 22.300781 77.160156 24.457031 74.246094 23.257812 75.324219 C 28.488281 70.695312 39.386719 60.601562 69.402344 50.386719 C 99.382812 40.210938 147.839844 30.835938 225 30.835938 Z M 153.46875 122.761719 C 147.839844 122.761719 143.25 127.351562 143.25 132.976562 L 143.25 159.3125 C 138.699219 163.582031 104.730469 195.539062 58.867188 248.886719 C 27.691406 285.15625 20.546875 322.0625 20.625 347.519531 C 20.664062 358.609375 23.300781 378.480469 25.855469 396.714844 C 28.410156 414.949219 30.964844 430.789062 30.964844 430.789062 C 31.761719 435.777344 36.03125 439.40625 41.0625 439.40625 L 92.15625 439.40625 C 97.785156 439.40625 102.375 434.816406 102.375 429.191406 L 102.375 418.976562 L 347.625 418.976562 L 347.625 429.191406 C 347.625 434.816406 352.214844 439.40625 357.84375 439.40625 L 408.9375 439.40625 C 413.925781 439.40625 418.199219 435.777344 418.996094 430.828125 C 418.996094 430.828125 421.589844 414.949219 424.144531 396.753906 C 426.699219 378.558594 429.335938 358.648438 429.375 347.476562 C 429.414062 322.0625 422.230469 285.074219 391.132812 248.886719 C 345.269531 195.539062 311.300781 163.582031 306.75 159.3125 L 306.75 132.976562 C 306.75 127.351562 302.160156 122.761719 296.53125 122.761719 L 255.65625 122.761719 C 250.027344 122.761719 245.4375 127.351562 245.4375 132.976562 L 245.4375 153.40625 L 204.5625 153.40625 L 204.5625 132.976562 C 204.5625 127.351562 199.972656 122.761719 194.34375 122.761719 Z M 163.6875 143.191406 L 184.125 143.191406 L 184.125 163.621094 C 184.125 169.246094 188.714844 173.835938 194.34375 173.835938 L 255.65625 173.835938 C 261.285156 173.835938 265.875 169.246094 265.875 163.621094 L 265.875 143.191406 L 286.3125 143.191406 L 286.3125 163.621094 C 286.3125 166.453125 287.511719 169.167969 289.585938 171.121094 C 289.585938 171.121094 327.347656 206.035156 375.605469 262.210938 C 403.308594 294.410156 408.976562 325.773438 408.9375 347.476562 C 408.9375 354.9375 406.421875 375.925781 403.90625 393.921875 C 402.03125 407.289062 400.992188 413.671875 400.15625 418.976562 L 368.0625 418.976562 L 368.0625 408.761719 C 368.0625 403.136719 363.472656 398.550781 357.84375 398.550781 L 92.15625 398.550781 C 86.527344 398.550781 81.9375 403.136719 81.9375 408.761719 L 81.9375 418.976562 L 49.84375 418.976562 C 49.046875 413.671875 47.96875 407.246094 46.09375 393.882812 C 43.578125 375.847656 41.101562 354.898438 41.0625 347.4375 C 40.984375 325.773438 46.609375 294.53125 74.394531 262.210938 C 122.652344 206.035156 160.414062 171.121094 160.414062 171.121094 C 162.488281 169.167969 163.6875 166.453125 163.6875 163.621094 Z M 143.25 224.90625 L 143.25 245.335938 L 184.125 245.335938 L 184.125 224.90625 Z M 204.5625 224.90625 L 204.5625 245.335938 L 245.4375 245.335938 L 245.4375 224.90625 Z M 265.875 224.90625 L 265.875 245.335938 L 306.75 245.335938 L 306.75 224.90625 Z M 143.25 265.761719 L 143.25 286.191406 L 184.125 286.191406 L 184.125 265.761719 Z M 204.5625 265.761719 L 204.5625 286.191406 L 245.4375 286.191406 L 245.4375 265.761719 Z M 265.875 265.761719 L 265.875 286.191406 L 306.75 286.191406 L 306.75 265.761719 Z M 143.25 306.621094 L 143.25 327.050781 L 184.125 327.050781 L 184.125 306.621094 Z M 204.5625 306.621094 L 204.5625 327.050781 L 245.4375 327.050781 L 245.4375 306.621094 Z M 265.875 306.621094 L 265.875 327.050781 L 306.75 327.050781 L 306.75 306.621094 Z M 265.875 306.621094 " fill-opacity="1" fill-rule="nonzero"/></g></svg>
